client/public/img/game/shared/skins/distant_shores_base.svg

<?xml version="1.0" encoding="UTF-8" standalone="no"?>
<!-- Created with Inkscape (http://www.inkscape.org/) -->

<svg
   width="90.083839"
   height="90.021393"
   viewBox="0 0 23.834684 23.818161"
   version="1.1"
   id="svg5"
   xmlns:xlink="http://www.w3.org/1999/xlink"
   xmlns="http://www.w3.org/2000/svg"
   xmlns:svg="http://www.w3.org/2000/svg">
  <defs
     id="defs2">
    <linearGradient
       id="linearGradient1">
      <stop
         style="stop-color:#006b74;stop-opacity:1;"
         offset="0"
         id="stop1" />
      <stop
         style="stop-color:#15888a;stop-opacity:0.78431374;"
         offset="0.42326334"
         id="stop3" />
      <stop
         style="stop-color:#4bcdbd;stop-opacity:0.3254902;"
         offset="0.50565434"
         id="stop4" />
      <stop
         style="stop-color:#73ffe3;stop-opacity:0;"
         offset="0.93699509"
         id="stop2" />
    </linearGradient>
    <linearGradient
       xlink:href="#linearGradient1"
       id="linearGradient2"
       x1="0.072333336"
       y1="11.954535"
       x2="23.884834"
       y2="11.954535"
       gradientUnits="userSpaceOnUse"
       gradientTransform="matrix(1.00093,0,0,1.0000014,0.38005596,-23.383391)" />
    <clipPath
       clipPathUnits="userSpaceOnUse"
       id="clipPath3">
      <g
         id="g6"
         transform="rotate(-180,11.904429,11.909081)">
        <g
           id="use3"
           transform="rotate(180,11.904429,11.909081)"
           clip-path="url(#clipPath3)">
          <g
             id="g12"
             transform="rotate(180,11.904429,11.909081)">
            <circle
               style="fill:#ffb673;fill-opacity:1;stroke:none;stroke-width:0.260903;stroke-linecap:round;stroke-linejoin:round;stroke-miterlimit:10;stroke-dasharray:none;stroke-opacity:1"
               id="circle11"
               cx="11.906251"
               cy="11.906251"
               r="11.906251" />
            <ellipse
               style="fill:url(#linearGradient13);stroke:none;stroke-width:0.261024;stroke-linecap:round;stroke-linejoin:round;stroke-miterlimit:10;stroke-dasharray:none;stroke-opacity:1"
               id="ellipse11"
               cx="-11.424992"
               cy="-12.371656"
               transform="matrix(-0.99922366,0.03939653,-0.03946984,-0.99922076,0,0)"
               ry="11.906268"
               rx="11.917324" />
          </g>
        </g>
      </g>
    </clipPath>
    <linearGradient
       xlink:href="#linearGradient1"
       id="linearGradient13"
       gradientUnits="userSpaceOnUse"
       gradientTransform="matrix(1.00093,0,0,1.0000014,-23.414714,-24.326209)"
       x1="0.072333336"
       y1="11.954535"
       x2="23.884834"
       y2="11.954535" />
  </defs>
  <g
     id="layer1"
     transform="translate(0.01291253)">
    <circle
       style="fill:#ffb673;fill-opacity:1;stroke:none;stroke-width:0.260903;stroke-linecap:round;stroke-linejoin:round;stroke-miterlimit:10;stroke-dasharray:none;stroke-opacity:1"
       id="path846"
       cx="-11.907259"
       cy="11.901599"
       r="11.906251"
       transform="rotate(-90)" />
    <ellipse
       style="fill:url(#linearGradient2);stroke:none;stroke-width:0.261024;stroke-linecap:round;stroke-linejoin:round;stroke-miterlimit:10;stroke-dasharray:none;stroke-opacity:1"
       id="path846-7"
       cx="12.369779"
       cy="-11.428838"
       transform="matrix(0.03939653,0.99922366,-0.99922076,0.03946984,0,0)"
       ry="11.906268"
       rx="11.917324" />
    <path
       id="path2"
       clip-path="none"
       style="opacity:0.892453;fill:#dadfdf;fill-opacity:1;fill-rule:evenodd;stroke-width:4.16674;stroke-linecap:round;stroke-linejoin:round;stroke-dasharray:none"
       d="M 12.943203 6.1907195 C 12.784084 5.8252726 13.25857 6.0877821 12.218699 4.8497161 C 10.700083 2.7854255 12.12463 2.9801147 12.175808 2.1206835 L 11.1645 0.71973539 A 11.906251 11.917341 89.999867 0 0 11.126776 0.71870187 A 11.906251 11.917341 89.999867 0 0 9.7041238 0.86391265 C 9.7127854 0.90241774 9.7248293 0.95654188 9.7330626 0.99568756 C 9.7819552 1.2281495 9.6866462 1.5725793 9.5661477 1.7780688 C 8.8145881 3.0597253 9.6272156 3.7125456 10.027618 4.6357756 C 10.208153 5.0685892 10.275026 5.5243551 10.168178 5.937505 C 10.061777 6.3489269 9.7923006 6.9565347 9.7583841 7.384962 C 9.7217136 7.848177 10.670518 8.8921956 10.403823 9.7910168 C 10.33647 10.01801 10.241127 10.253506 10.14234 10.489682 C 9.822215 11.25503 10.162774 12.466976 10.377985 13.267807 C 10.722086 14.548263 10.314279 15.842849 10.034336 17.237591 C 9.9620012 17.597981 9.9863938 18.183087 10.097381 18.533636 C 10.166947 18.753356 10.240914 18.957369 10.319073 19.144451 C 10.546132 19.687939 10.959861 20.512655 11.028074 21.071982 C 11.040377 21.17286 11.034323 21.282036 10.997585 21.402712 C 10.910691 21.688138 10.678988 22.111508 10.674607 22.411952 C 10.67392 22.459082 10.674711 22.506623 10.677191 22.555096 C 10.69074 22.819927 10.800434 23.240274 10.838938 23.503875 L 10.981049 24.477976 A 11.906251 11.917341 89.999867 0 0 12.06677 24.5126 A 11.906251 11.917341 89.999867 0 0 12.827964 24.42785 L 12.900311 22.147886 L 12.687404 20.112868 L 12.431606 18.031341 L 12.77267 15.672312 C 12.77267 15.672312 12.690843 13.248265 12.516872 13.221298 C 11.701003 13.094831 13.099089 10.399889 12.861554 10.015809 C 12.189164 8.4407122 10.721123 7.0030358 12.943203 6.1907195 z "
       transform="rotate(-90,11.398753,12.107113)" />
    <path
       id="path2-2"
       clip-path="none"
       style="opacity:0.967925;fill:#cfd5d5;fill-opacity:1;fill-rule:evenodd;stroke-width:4.25607;stroke-linecap:round;stroke-linejoin:round;stroke-dasharray:none"
       d="M 13.964846 10.225616 C 13.944951 9.8380881 13.785312 9.3848561 13.625332 9.0892508 C 12.086622 6.2460799 13.589819 6.0692015 13.390721 4.4001311 C 11.872104 2.2463834 13.297169 2.4494345 13.348346 1.5527595 C 13.411781 1.2958138 13.436172 1.0732595 13.429995 0.87941558 A 11.906251 11.917341 89.999867 0 0 11.126776 0.71870187 A 11.906251 11.917341 89.999867 0 0 10.540765 0.75642566 C 9.8873767 1.9548031 10.251398 2.9499911 10.620864 3.81257 C 10.722078 4.0488715 10.998696 4.3376279 11.16295 4.533973 C 11.509259 4.9479444 11.283996 5.391709 11.107656 5.7938445 C 11.00484 6.0283112 10.737366 6.3435103 10.677708 6.5860443 C 10.6306 6.777557 10.681479 7.0094111 10.755222 7.2831594 C 10.850039 7.6351344 11.197759 8.0850182 11.354669 8.4102224 C 11.733953 9.1963086 11.136486 10.304295 10.937124 11.280848 C 10.881197 11.554799 11.013689 11.965379 11.152614 12.20844 C 12.112191 13.887293 11.541724 15.554835 11.194472 17.390036 C 11.130065 17.730422 11.152827 18.2825 11.251316 18.614768 C 11.386816 19.071894 11.53835 19.465522 11.708136 19.78679 C 11.858894 20.072054 12.119424 20.534775 12.08279 20.852358 C 12.06579 20.999731 12.034199 21.161406 12.001141 21.348968 C 11.922958 21.792558 11.582207 22.492132 11.728807 22.867222 C 11.793005 23.03148 11.883529 23.201969 11.941713 23.364866 L 12.178908 24.473325 C 12.188612 24.481679 12.19998 24.488451 12.209914 24.49658 A 11.906251 11.917341 89.999867 0 0 13.846507 24.301243 L 13.570038 22.904946 C 13.522297 22.663622 13.590473 22.298517 13.68941 22.073472 C 13.881203 21.637218 13.957224 21.200762 13.926605 20.764508 C 13.909399 20.519357 13.779683 20.140909 13.713698 19.904095 C 13.614969 19.549763 13.565537 19.157863 13.611379 18.777549 C 13.672476 18.270684 13.932194 17.491169 13.935907 16.975591 L 13.941591 16.181325 C 13.943538 15.911111 13.937909 15.473068 13.925572 15.20309 C 13.907678 14.811524 13.877287 14.257428 13.834104 13.821262 C 13.795907 13.435443 13.407734 12.896673 13.436713 12.54227 C 13.481135 11.998998 13.763277 11.191526 13.932806 10.583217 C 13.962425 10.476937 13.971477 10.354791 13.964846 10.225616 z "
       transform="rotate(-90,11.398753,12.107113)" />
  </g>
</svg>

<svg xmlns="http://www.w3.org/2000/svg" xmlns:xlink="http://www.w3.org/1999/xlink" width="90.084" height="90.021" viewBox="0 0 23.835 23.818"><defs><linearGradient id="a"><stop offset="0" style="stop-color:#006b74;stop-opacity:1"/><stop offset=".423" style="stop-color:#15888a;stop-opacity:.78431374"/><stop offset=".506" style="stop-color:#4bcdbd;stop-opacity:.3254902"/><stop offset=".937" style="stop-color:#73ffe3;stop-opacity:0"/></linearGradient><linearGradient xlink:href="#a" id="d" x1=".072" x2="23.885" y1="11.955" y2="11.955" gradientTransform="matrix(1.00093 0 0 1 .38 -23.383)" gradientUnits="userSpaceOnUse"/></defs><g transform="translate(.013)"><circle cx="-11.907" cy="11.902" r="11.906" style="fill:#ffb673;fill-opacity:1;stroke:none;stroke-width:.260903;stroke-linecap:round;stroke-linejoin:round;stroke-miterlimit:10;stroke-dasharray:none;stroke-opacity:1" transform="rotate(-90)"/><ellipse cx="12.37" cy="-11.429" rx="11.917" ry="11.906" style="fill:url(#d);stroke:none;stroke-width:.261024;stroke-linecap:round;stroke-linejoin:round;stroke-miterlimit:10;stroke-dasharray:none;stroke-opacity:1" transform="rotate(87.742)skewX(.004)"/><path d="M12.943 6.19c-.159-.365.316-.102-.724-1.34-1.519-2.065-.094-1.87-.043-2.73L11.165.72a11.906 11.917 90 0 0-.038-.001 11.906 11.917 90 0 0-1.423.145c.009.038.02.093.03.132.048.232-.047.577-.168.782-.751 1.282.061 1.935.462 2.858.18.433.247.888.14 1.302-.106.41-.376 1.019-.41 1.447-.036.463.913 1.507.646 2.406a7 7 0 0 1-.262.699c-.32.765.02 1.977.236 2.778.344 1.28-.064 2.575-.344 3.97-.072.36-.048.945.063 1.296q.105.33.222.61c.227.544.64 1.369.71 1.928.011.1.005.21-.031.33-.087.286-.319.71-.323 1.01q-.001.07.002.143c.014.265.123.685.162.949l.142.974a11.906 11.917 90 0 0 1.086.035 11.906 11.917 90 0 0 .761-.085l.072-2.28-.213-2.035-.255-2.082.34-2.359s-.081-2.424-.255-2.45c-.816-.127.582-2.822.345-3.206-.673-1.575-2.14-3.013.081-3.825" style="opacity:.892453;fill:#dadfdf;fill-opacity:1;fill-rule:evenodd;stroke-width:4.16674;stroke-linecap:round;stroke-linejoin:round;stroke-dasharray:none" transform="rotate(-90 11.399 12.107)"/><path d="M13.965 10.226c-.02-.388-.18-.841-.34-1.137-1.538-2.843-.035-3.02-.234-4.689-1.519-2.154-.094-1.95-.043-2.847a2.5 2.5 0 0 0 .082-.674 11.906 11.917 90 0 0-2.303-.16 11.906 11.917 90 0 0-.586.037c-.654 1.199-.29 2.194.08 3.057.101.236.378.525.542.721.346.414.121.858-.055 1.26-.103.234-.37.55-.43.792-.047.192.003.423.077.697.095.352.443.802.6 1.127.379.786-.219 1.894-.418 2.87-.056.275.077.685.216.928.96 1.68.389 3.347.041 5.182-.064.34-.041.892.057 1.225q.203.687.457 1.172c.15.285.411.748.375 1.065-.017.148-.049.31-.082.497-.078.444-.419 1.143-.272 1.518.064.164.155.335.213.498l.237 1.108q.016.012.03.024a11.906 11.917 90 0 0 1.638-.196l-.277-1.396c-.048-.241.02-.606.12-.832.191-.436.267-.872.237-1.308-.018-.246-.147-.624-.213-.86a2.9 2.9 0 0 1-.103-1.127c.061-.507.321-1.287.325-1.802l.006-.795c.002-.27-.004-.708-.016-.978a29 29 0 0 0-.092-1.382c-.038-.386-.426-.924-.397-1.279.044-.543.326-1.35.496-1.959.03-.106.038-.228.032-.357" style="opacity:.967925;fill:#cfd5d5;fill-opacity:1;fill-rule:evenodd;stroke-width:4.25607;stroke-linecap:round;stroke-linejoin:round;stroke-dasharray:none" transform="rotate(-90 11.399 12.107)"/></g></svg>
